svg/black/call.svg

<?xml version="1.0" encoding="UTF-8"?>
<svg width="32px" height="32px" viewBox="0 0 32 32" version="1.1" xmlns="http://www.w3.org/2000/svg" xmlns:xlink="http://www.w3.org/1999/xlink">
    <!-- Generator: Sketch 51.2 (57519) - http://www.bohemiancoding.com/sketch -->
    <title>svg/black/call</title>
    <desc>Created with Sketch.</desc>
    <defs></defs>
    <g id="black/call" stroke="none" stroke-width="1" fill="none" fill-rule="evenodd">
        <path d="M16,32 C7.163444,32 0,24.836556 0,16 C0,7.163444 7.163444,0 16,0 C24.836556,0 32,7.163444 32,16 C32,24.836556 24.836556,32 16,32 Z M16.0173218,21.8043882 C15.252658,21.8390217 14.490343,21.6963578 13.7899534,21.3875461 C13.0523658,21.0702136 12.3917743,20.5977471 11.8531113,20.002283 C10.9562949,19.0220969 10.4629975,17.7392228 10.4720587,16.410704 C10.4467603,15.6705852 10.5478584,14.9315718 10.7710061,14.2254408 C10.9697813,13.629451 11.2703721,13.0724319 11.6594271,12.5791251 C12.106352,12.0066401 12.6650442,11.5310355 13.3015324,11.1812303 C13.8947362,10.8532041 14.5475242,10.6470605 15.2215324,10.5749145 C15.7699913,10.5048192 16.325566,10.5119056 16.8720587,10.5959672 C17.5723857,10.711634 18.241586,10.9695699 18.8383745,11.3538619 C19.455874,11.7487306 19.9872099,12.2643126 20.4004797,12.8696514 C20.4510061,12.9412303 20.5099534,12.970704 20.5857429,12.8949145 L21.0741639,12.4064935 C21.2341639,12.2464935 21.4067955,12.090704 21.5499534,11.9264935 C21.6931113,11.762283 21.8657429,11.6359672 22.0173218,11.4759672 C22.4510061,11.0170198 22.9099534,10.5791251 23.3562692,10.1285987 C23.4320587,10.0528093 23.4404797,10.0149145 23.5204797,10.1496514 C23.6004797,10.2843882 23.7099534,10.3980724 23.7983745,10.5243882 C24.6243303,11.6664387 25.185304,12.9782541 25.4404797,14.3643882 C25.5078428,14.7017281 25.5486695,15.0438277 25.562585,15.3875461 C25.5953396,15.9925551 25.5826725,16.5991687 25.5246903,17.202283 C25.4287464,17.9889874 25.2465994,18.7627588 24.9815324,19.5096514 C24.686148,20.305364 24.2869022,21.0585511 23.7941639,21.7496514 C23.7099534,21.8549145 23.6973218,21.930704 23.7941639,22.0275461 C24.2615324,22.490704 24.7246903,22.9664935 25.1878482,23.4338619 C25.3267955,23.5980724 25.3646903,23.5938619 25.4867955,23.4338619 C26.2861452,22.3873574 26.90518,21.2147489 27.3183745,19.9643882 C27.4872834,19.4603628 27.6278541,18.94728 27.7394271,18.4275461 C27.8699534,17.8085987 27.9036376,17.1728093 27.9710061,16.5454408 C28.0299534,15.9938619 27.9078482,15.442283 27.9078482,14.890704 C27.9091737,14.8795151 27.9091737,14.8682087 27.9078482,14.8570198 C27.7773218,14.2633356 27.722585,13.6570198 27.5541639,13.0633356 C27.3534518,12.341728 27.0943511,11.6376501 26.7794271,10.9580724 C26.386083,10.1353579 25.8986133,9.36105827 25.3267955,8.650704 C24.8755592,8.08053564 24.3769427,7.54952315 23.8362692,7.06333558 C23.6594271,6.90333558 23.6173218,6.90754611 23.4531113,7.08438821 L22.0510061,8.57491453 L21.0783745,9.60228295 C21.0152166,9.66965137 20.9520587,9.70333558 20.8720587,9.63175663 C20.4646798,9.30398002 20.0227691,9.02160895 19.5541639,8.78965137 C19.1097051,8.55217461 18.6391898,8.36707697 18.1520587,8.23807242 C17.58152,8.06882065 16.9911888,7.97538693 16.3962692,7.96017769 C16.3317757,7.96436494 16.2670785,7.96436494 16.202585,7.96017769 C15.8391638,7.93146222 15.4737603,7.93992717 15.1120587,7.98544085 C14.6425786,8.02957872 14.1785856,8.11983876 13.7267955,8.25491453 C13.1698459,8.41511005 12.6319521,8.63535002 12.122585,8.91175663 C10.7805469,9.62213086 9.66570754,10.6961123 8.90574289,12.010704 C8.55211121,12.6352449 8.27771476,13.3014343 8.08890079,13.9938619 C7.97629671,14.4467249 7.89470395,14.9067393 7.84469026,15.370704 C7.77895443,15.8395793 7.77188243,16.3148172 7.82363763,16.7854408 C7.87217305,17.426637 7.99077462,18.0605906 8.17732184,18.6759672 C8.28960254,19.0128093 8.41591833,19.3426338 8.55626921,19.6654408 C8.74196147,20.0758826 8.96612084,20.467809 9.22574289,20.8359672 C9.6857126,21.5108458 10.2385196,22.1175161 10.8678482,22.6380724 C11.5647582,23.2137098 12.3590224,23.6600378 13.2131113,23.9559672 C14.2050559,24.2880523 15.2505474,24.430879 16.2952166,24.3770198 C17.1155253,24.3467848 17.9269657,24.196413 18.7036376,23.930704 C19.3315563,23.7114171 19.9276276,23.4098418 20.4762692,23.0338619 C20.6110061,22.9412303 20.6152166,22.9033356 20.5015324,22.7854408 L18.922585,21.1601777 C18.8933142,21.1172467 18.8470094,21.0889608 18.7954506,21.0825159 C18.7438918,21.0760711 18.6920491,21.0920886 18.6531113,21.1264935 C18.4354051,21.2664925 18.2022878,21.3809319 17.9583745,21.4675461 C17.3435173,21.7195285 16.6811284,21.8344767 16.0173218,21.8043882 Z M25.0372875,23.7109527 L20.7762349,19.3741106 C20.6836033,19.2772685 20.6078138,19.273058 20.5320244,19.3741106 C20.2310205,19.813056 19.8663176,20.2047214 19.4499191,20.5362159 C19.3488665,20.6162159 19.3488665,20.6793738 19.4499191,20.7720054 C19.833077,21.1551633 20.2120244,21.5467422 20.5909717,21.9299001 C21.0836033,22.4309527 21.5762349,22.9320054 22.073077,23.433058 C22.1614981,23.5214791 22.1572875,23.5635843 22.073077,23.6393738 C21.8751823,23.7867422 21.6814981,23.9383212 21.4751823,24.0604264 C20.3953123,24.8056573 19.1698101,25.3136524 17.8793928,25.5509527 C17.3777528,25.6646446 16.8653195,25.7239344 16.3509717,25.7277948 C16.2836033,25.7277948 16.2120244,25.7277948 16.1446559,25.7277948 C15.7809363,25.7531115 15.4155934,25.7418267 15.0541296,25.6941106 C14.633077,25.6309527 14.2372875,25.5804264 13.8372875,25.4920054 C13.3304136,25.3766017 12.8345164,25.2174074 12.3551823,25.0162159 C11.5411962,24.6772138 10.7775815,24.228112 10.0857086,23.6814791 C9.40194945,23.1432289 8.79182265,22.5175305 8.27097174,21.8204264 C7.72213997,21.0906462 7.28506415,20.2831911 6.97412963,19.424637 C6.63355629,18.5838985 6.43986522,17.6909257 6.40149805,16.784637 C6.39435639,16.689332 6.39435639,16.5936262 6.40149805,16.4983212 C6.40149805,16.144637 6.40149805,15.8120054 6.40149805,15.504637 C6.37863247,15.3977763 6.37863247,15.2872871 6.40149805,15.1804264 C6.40149805,15.1004264 6.43518226,15.024637 6.44781384,14.944637 C6.48986448,14.5716379 6.55596703,14.2017449 6.64570858,13.8372685 C6.76102288,13.3474383 6.9144733,12.8673778 7.10465595,12.4014791 C7.36659652,11.7713367 7.69102438,11.1690293 8.073077,10.6035843 C8.64033859,9.77286919 9.3335644,9.0356065 10.1278138,8.41832116 C10.5489146,8.08954771 10.9967937,7.7965954 11.4667612,7.54253169 C12.6333347,6.89449645 13.9257988,6.50532117 15.2562349,6.40147906 L15.5004454,6.40147906 C16.885403,6.31370029 18.2726876,6.53221558 19.5636033,7.04147906 L19.9257086,7.19305801 C20.0744805,7.26042643 20.2218489,7.33060187 20.3678138,7.40358432 C20.7611795,7.6013006 21.1409644,7.82495173 21.5046559,8.07305801 C21.5408675,8.10653867 21.5896696,8.12293322 21.6387504,8.11810561 C21.6878311,8.11327799 21.7325038,8.0876892 21.7614981,8.04779485 C22.2078138,7.53832116 22.6793928,7.05411064 23.1467612,6.56568959 C23.2351823,6.47305801 23.2393928,6.38884748 23.1467612,6.31305801 C22.3164859,5.70902073 21.4122935,5.21376667 20.4562349,4.8393738 C19.6408327,4.52265965 18.7939186,4.29399284 17.9299191,4.15726853 C17.3891298,4.07139648 16.8435074,4.01936548 16.2962349,4.00147906 C15.4480607,3.98797001 14.6009439,4.06703424 13.7699191,4.23726853 C13.2390592,4.3427504 12.7157999,4.48341151 12.2036033,4.65832116 C11.2922438,4.96329104 10.4223966,5.38053482 9.61412963,5.90042643 C8.64468082,6.51960605 7.76728847,7.27226411 7.00781384,8.1362159 C5.99405284,9.28657751 5.21201219,10.6219083 4.70465595,12.0688475 C4.49264804,12.6805011 4.32519294,13.3066988 4.20360331,13.9425317 C4.1110444,14.5002366 4.04779964,15.0624123 4.01412963,15.6267422 C3.97981821,16.2329413 4.00803729,16.8410625 4.09834016,17.4414791 C4.16389877,18.0378393 4.27796069,18.6278633 4.43939279,19.2056896 C4.553077,19.5972685 4.66676121,19.9888475 4.81412963,20.3677948 C5.10771304,21.1286585 5.47730345,21.8579648 5.91728753,22.544637 C6.46465063,23.3900948 7.11058713,24.1674801 7.84149805,24.8604264 C8.31401082,25.2963316 8.82091802,25.6934089 9.35728753,26.0477948 C10.0751318,26.5390237 10.846377,26.9472469 11.6562349,27.264637 C12.4633324,27.5845404 13.3036258,27.8133261 14.1614981,27.9467422 C14.8043975,28.0430761 15.4526668,28.0993251 16.1025507,28.1151633 C16.5236033,28.1151633 16.9446559,28.0477948 17.3404454,28.0393738 C17.6395589,28.0169215 17.9365461,27.9718808 18.2288665,27.904637 C18.553077,27.8499001 18.873077,27.7656896 19.193077,27.6814791 C19.8244898,27.5125225 20.4412304,27.2928615 21.0372875,27.024637 C21.5661404,26.7833173 22.0757051,26.5017899 22.5614981,26.1825317 C23.4976655,25.5820901 24.3475979,24.8568145 25.0878138,24.0267422 C25.2099191,23.8877948 25.2057086,23.8625317 25.0372875,23.7109527 Z" id="Combined-Shape" fill="#000000" fill-rule="nonzero"></path>
        <g id="Group-3" transform="translate(4.000000, 4.000000)"></g>
    </g>
</svg>

<svg width="32" height="32" viewBox="0 0 32 32" xmlns="http://www.w3.org/2000/svg"><path d="M16 32C7.163 32 0 24.837 0 16S7.163 0 16 0s16 7.163 16 16-7.163 16-16 16zm.017-10.196a4.964 4.964 0 0 1-2.227-.416 5.592 5.592 0 0 1-1.937-1.386 5.267 5.267 0 0 1-1.38-3.591c-.026-.74.075-1.48.298-2.186.199-.596.5-1.153.888-1.646a5.356 5.356 0 0 1 1.643-1.398 5.086 5.086 0 0 1 1.92-.606 5.92 5.92 0 0 1 1.65.021c.7.116 1.37.374 1.966.758A5.44 5.44 0 0 1 20.4 12.87c.051.071.11.1.186.025l.488-.489c.16-.16.333-.315.476-.48.143-.164.316-.29.467-.45.434-.459.893-.897 1.34-1.347.075-.076.083-.114.163.02.08.135.19.25.278.375a9.482 9.482 0 0 1 1.642 3.84c.068.338.109.68.123 1.024.032.605.02 1.211-.038 1.814-.096.787-.278 1.56-.543 2.308a9.634 9.634 0 0 1-1.188 2.24c-.084.105-.097.18 0 .278.468.463.93.938 1.394 1.406.139.164.177.16.299 0 .8-1.047 1.418-2.22 1.831-3.47.17-.504.31-1.017.421-1.536.131-.62.165-1.255.232-1.883.059-.551-.063-1.103-.063-1.654a.143.143 0 0 0 0-.034c-.13-.594-.185-1.2-.354-1.794-.2-.721-.46-1.425-.775-2.105a11.79 11.79 0 0 0-1.452-2.307c-.451-.57-.95-1.101-1.49-1.588-.178-.16-.22-.155-.384.021l-1.402 1.49-.973 1.028c-.063.068-.126.101-.206.03a7.192 7.192 0 0 0-1.318-.842 6.514 6.514 0 0 0-1.402-.552 6.783 6.783 0 0 0-1.756-.278 1.554 1.554 0 0 1-.193 0 5.356 5.356 0 0 0-1.09.025c-.47.045-.934.135-1.386.27a8 8 0 0 0-1.604.657 8.084 8.084 0 0 0-3.217 3.099 8.636 8.636 0 0 0-.817 1.983c-.113.453-.194.913-.244 1.377a5.701 5.701 0 0 0-.021 1.414c.048.642.167 1.276.353 1.891.113.337.239.667.38.99.185.41.41.802.669 1.17a8.69 8.69 0 0 0 1.642 1.802 7.579 7.579 0 0 0 2.345 1.318 8.354 8.354 0 0 0 3.082.421c.82-.03 1.632-.18 2.409-.446a7.524 7.524 0 0 0 1.772-.897c.135-.093.14-.13.026-.249l-1.58-1.625a.181.181 0 0 0-.269-.034c-.218.14-.45.255-.695.342a4.573 4.573 0 0 1-1.94.336zm9.02 1.907l-4.26-4.337c-.093-.097-.17-.1-.245 0a5.36 5.36 0 0 1-1.082 1.162c-.101.08-.101.143 0 .236.383.383.762.775 1.141 1.158.493.501.985 1.002 1.482 1.503.088.088.084.13 0 .206-.198.148-.392.3-.598.421a9.288 9.288 0 0 1-3.596 1.491 7.158 7.158 0 0 1-1.528.177h-.206c-.364.025-.73.014-1.09-.034-.422-.063-.818-.114-1.218-.202a8.981 8.981 0 0 1-1.482-.476 9.638 9.638 0 0 1-2.27-1.335 9.941 9.941 0 0 1-1.814-1.86 9.196 9.196 0 0 1-1.297-2.396 7.924 7.924 0 0 1-.573-2.64 1.916 1.916 0 0 1 0-.287v-.993a.775.775 0 0 1 0-.325c0-.08.034-.155.047-.235.042-.373.108-.743.198-1.108.115-.49.268-.97.459-1.436a9.684 9.684 0 0 1 4.362-4.859 9.293 9.293 0 0 1 3.79-1.14h.243a9.444 9.444 0 0 1 4.064.64l.362.151a9.933 9.933 0 0 1 1.579.88.173.173 0 0 0 .256-.025c.447-.51.918-.994 1.386-1.482.088-.093.092-.177 0-.253a12.03 12.03 0 0 0-5.217-2.156 13.158 13.158 0 0 0-1.634-.156 11.663 11.663 0 0 0-2.526.236 12.21 12.21 0 0 0-1.566.421c-.912.305-1.782.723-2.59 1.242-.97.62-1.847 1.372-2.606 2.236a11.907 11.907 0 0 0-2.303 3.933c-.212.612-.38 1.238-.501 1.874-.093.557-.156 1.12-.19 1.684a8.842 8.842 0 0 0 .084 1.814c.066.597.18 1.187.341 1.765.114.391.228.783.375 1.162.294.76.663 1.49 1.103 2.177a12.707 12.707 0 0 0 1.924 2.315c.473.436.98.833 1.516 1.188.718.491 1.49.9 2.3 1.217.806.32 1.647.548 2.504.682.643.096 1.292.152 1.942.168.42 0 .842-.067 1.237-.076.3-.022.597-.067.889-.134.324-.055.644-.14.964-.224a11.368 11.368 0 0 0 3.368-1.499c.937-.6 1.787-1.325 2.527-2.155.122-.14.118-.164-.05-.316z"/></svg>
